svgs/regular/wand-magic.svg

<svg xmlns="http://www.w3.org/2000/svg" viewBox="0 0 512 512"><!-- Font Awesome Pro 6.0.0-alpha2 by @fontawesome - https://fontawesome.com License - https://fontawesome.com/license (Commercial License) --><path d="M497.944 48L464.02 14.061C454.649 4.688 442.362 0 430.076 0S405.51 4.686 396.137 14.059L14.061 396.109C-4.685 414.854 -4.687 445.244 14.057 463.99L47.99 497.938C57.362 507.311 69.649 512 81.934 512S106.5 507.314 115.873 497.941L497.942 115.879C516.686 97.135 516.686 66.746 497.944 48ZM81.94 464.004L48 430.051L286.051 191.988L320.002 225.939L81.94 464.004ZM353.938 192L319.989 158.051L430.03 48.004C430.035 48.002 430.053 48 430.076 48L464 81.938L353.938 192Z"/></svg>

<svg xmlns="http://www.w3.org/2000/svg" viewBox="0 0 512 512"><!--! Font Awesome Pro 6.0.0-alpha3 by @fontawesome - https://fontawesome.com License - https://fontawesome.com/license (Commercial License) --><path d="M497.9 48l-33.92-33.94C454.6 4.688 442.4 0 430.1 0s-24.57 4.686-33.94 14.06L14.06 396.1c-18.75 18.74-18.75 49.13-.0039 67.88l33.93 33.95C57.36 507.3 69.65 512 81.93 512s24.57-4.686 33.94-14.06L497.9 115.9C516.7 97.13 516.7 66.75 497.9 48zM81.94 464L48 430.1l238.1-238.1l33.95 33.95L81.94 464zM353.9 192l-33.95-33.95l110.1-110c.0059-.002-.0234 0 0 0L464 81.94L353.9 192z"/></svg>
